packages/components/bolt-icons/src/svgs/pega/pega-map.svg

<svg viewBox="0 0 32 32" xmlns="http://www.w3.org/2000/svg"><path fill="#fff" d="m31.55.83a1 1 0 0 0 -.94-.08l-9.61 4.11-9.61-4.11h-.06a1 1 0 0 0 -.28-.06h-.05a1 1 0 0 0 -.33.07l-10.06 4.24a1 1 0 0 0 -.61 1v24.34a1 1 0 0 0 .45.83 1 1 0 0 0 .55.17.89.89 0 0 0 .39-.09l6.77-2.9c1.01 1.35 1.84 2.35 2.07 2.65a1 1 0 0 0 1.53 0c.24-.28 1.07-1.28 2.08-2.63l6.77 2.9a.81.81 0 0 0 .7 0l10-4.28a1 1 0 0 0 .61-.92v-24.41a1 1 0 0 0 -.37-.83zm-29.55 27.99v-22.21l8-3.43v7.76a7.76 7.76 0 0 0 -6.79 7.65c0 2.18 1.91 5.46 3.75 8.1zm9-.06c-2.12-2.66-5.79-7.76-5.79-10.17a5.79 5.79 0 0 1 11.57 0c0 2.41-3.66 7.51-5.78 10.17zm7.78-10.17a7.75 7.75 0 0 0 -6.78-7.65v-7.76l8 3.43v22.21l-5-2.13c1.87-2.64 3.78-5.92 3.78-8.1zm11.22 6.8-8 3.43v-22.21l8-3.43z"/><path fill="#fff" d="m11 14.62a4 4 0 1 0 4 4 4 4 0 0 0 -4-4zm0 5.94a2 2 0 1 1 2-2 2 2 0 0 1 -2 2z"/></svg>

<svg id="icon-map" data-name="map" xmlns="http://www.w3.org/2000/svg" viewBox="0 0 32 32"><path d="M31.55.83a1,1,0,0,0-.94-.08L21,4.86,11.39.75h-.06a1,1,0,0,0-.28-.06H11a1,1,0,0,0-.33.07h0L.61,5A1,1,0,0,0,0,6V30.34a1,1,0,0,0,.45.83,1,1,0,0,0,.55.17.89.89,0,0,0,.39-.09l6.77-2.9C9.17,29.7,10,30.7,10.23,31a1,1,0,0,0,1.53,0c.24-.28,1.07-1.28,2.08-2.63l6.77,2.9h0a.81.81,0,0,0,.7,0h0l10-4.28a1,1,0,0,0,.61-.92V1.66A1,1,0,0,0,31.55.83ZM2,28.82V6.61l8-3.43v7.76a7.76,7.76,0,0,0-6.79,7.65c0,2.18,1.91,5.46,3.75,8.1Zm9-.06C8.88,26.1,5.21,21,5.21,18.59a5.79,5.79,0,0,1,11.57,0C16.78,21,13.12,26.1,11,28.76Zm7.78-10.17A7.75,7.75,0,0,0,12,10.94V3.18l8,3.43V28.82l-5-2.13C16.87,24.05,18.78,20.77,18.78,18.59ZM30,25.39l-8,3.43V6.61l8-3.43Z"/><path d="M11,14.62a4,4,0,1,0,4,4A4,4,0,0,0,11,14.62Zm0,5.94a2,2,0,1,1,2-2A2,2,0,0,1,11,20.56Z"/></svg>
